src/lib/packages/icons/src/assets/line/boxes.svg

<svg xmlns="http://www.w3.org/2000/svg" width="24" height="24" fill="none"><path fill="currentColor" d="M20.125 11.25h-2.556c.119-.327.181-.703.181-1.125v-6.25c0-1.668-.957-2.625-2.625-2.625h-6.25c-1.668 0-2.625.957-2.625 2.625v6.25c0 .422.062.798.181 1.125H3.875c-1.668 0-2.625.957-2.625 2.625v6.25c0 1.668.957 2.625 2.625 2.625h6.25c.799 0 1.429-.225 1.875-.637.446.412 1.076.637 1.875.637h6.25c1.668 0 2.625-.957 2.625-2.625v-6.25c0-1.668-.957-2.625-2.625-2.625Zm-3.875 1.5h1.5v1.849l-.334-.223a.75.75 0 0 0-.832 0l-.334.223V12.75Zm-5-10h1.5v1.849l-.334-.223a.75.75 0 0 0-.832 0l-.334.223V2.75Zm-3.5 1.125c0-.831.294-1.125 1.125-1.125h.875V6a.748.748 0 0 0 1.166.624L12 5.901l1.084.723A.75.75 0 0 0 14.25 6V2.75h.875c.831 0 1.125.294 1.125 1.125v6.25c0 .831-.294 1.125-1.125 1.125h-6.25c-.831 0-1.125-.294-1.125-1.125v-6.25Zm-1.5 8.875h1.5v1.849l-.334-.223a.75.75 0 0 0-.832 0l-.334.223V12.75Zm3.875 8.5h-6.25c-.831 0-1.125-.294-1.125-1.125v-6.25c0-.831.294-1.125 1.125-1.125h.875V16a.748.748 0 0 0 1.166.624L7 15.901l1.084.723A.75.75 0 0 0 9.25 16v-3.25h.875c.831 0 1.125.294 1.125 1.125v6.25c0 .831-.294 1.125-1.125 1.125Zm11.125-1.125c0 .831-.294 1.125-1.125 1.125h-6.25c-.831 0-1.125-.294-1.125-1.125v-6.25c0-.831.294-1.125 1.125-1.125h.875V16a.748.748 0 0 0 1.166.624L17 15.901l1.084.723A.75.75 0 0 0 19.25 16v-3.25h.875c.831 0 1.125.294 1.125 1.125v6.25Z"/></svg>

<svg width="24" height="24" viewBox="0 0 24 24" fill="none" xmlns="http://www.w3.org/2000/svg">
<path d="M20.125 11.25H17.569C17.688 10.923 17.75 10.547 17.75 10.125V3.875C17.75 2.207 16.793 1.25 15.125 1.25H8.875C7.207 1.25 6.25 2.207 6.25 3.875V10.125C6.25 10.547 6.31203 10.923 6.43103 11.25H3.875C2.207 11.25 1.25 12.207 1.25 13.875V20.125C1.25 21.793 2.207 22.75 3.875 22.75H10.125C10.924 22.75 11.554 22.525 12 22.113C12.446 22.525 13.076 22.75 13.875 22.75H20.125C21.793 22.75 22.75 21.793 22.75 20.125V13.875C22.75 12.207 21.793 11.25 20.125 11.25ZM16.25 12.75H17.75V14.599L17.416 14.376C17.164 14.208 16.836 14.208 16.584 14.376L16.25 14.599V12.75ZM11.25 2.75H12.75V4.599L12.416 4.37601C12.164 4.20801 11.836 4.20801 11.584 4.37601L11.25 4.599V2.75ZM7.75 3.875C7.75 3.044 8.044 2.75 8.875 2.75H9.75V6C9.75 6.277 9.902 6.53101 10.146 6.66101C10.388 6.79101 10.687 6.77699 10.916 6.62399L12 5.901L13.084 6.62399C13.21 6.70799 13.355 6.75 13.5 6.75C13.621 6.75 13.743 6.72101 13.854 6.66101C14.098 6.53001 14.25 6.276 14.25 6V2.75H15.125C15.956 2.75 16.25 3.044 16.25 3.875V10.125C16.25 10.956 15.956 11.25 15.125 11.25H13.875H10.125H8.875C8.044 11.25 7.75 10.956 7.75 10.125V3.875ZM6.25 12.75H7.75V14.599L7.41602 14.376C7.16402 14.208 6.83598 14.208 6.58398 14.376L6.25 14.599V12.75ZM10.125 21.25H3.875C3.044 21.25 2.75 20.956 2.75 20.125V13.875C2.75 13.044 3.044 12.75 3.875 12.75H4.75V16C4.75 16.277 4.902 16.531 5.146 16.661C5.388 16.792 5.68602 16.777 5.91602 16.624L7 15.901L8.08398 16.624C8.20998 16.708 8.355 16.75 8.5 16.75C8.621 16.75 8.743 16.721 8.854 16.661C9.098 16.53 9.25 16.276 9.25 16V12.75H10.125C10.956 12.75 11.25 13.044 11.25 13.875V20.125C11.25 20.956 10.956 21.25 10.125 21.25ZM21.25 20.125C21.25 20.956 20.956 21.25 20.125 21.25H13.875C13.044 21.25 12.75 20.956 12.75 20.125V13.875C12.75 13.044 13.044 12.75 13.875 12.75H14.75V16C14.75 16.277 14.902 16.531 15.146 16.661C15.388 16.792 15.686 16.777 15.916 16.624L17 15.901L18.084 16.624C18.21 16.708 18.355 16.75 18.5 16.75C18.621 16.75 18.743 16.721 18.854 16.661C19.098 16.53 19.25 16.276 19.25 16V12.75H20.125C20.956 12.75 21.25 13.044 21.25 13.875V20.125Z" fill="currentColor"/>
</svg>
